X:1
T:The Star O' Rabbie Burns
T: The Star O' Rabbie Burns
C:Josiah Booth
Z:All Rights Reserved
L:1/4
M:4/4
K:C
V:1 treble 
%%MIDI control 7 100
%%MIDI control 10 64
V:1
"C" G ^F/G/ c B |"F" A c"C" G3/2 G/ | G c"D7" d e |"G7" d3 G |"C" G c c3/2 B/ | %5
w: There is a star whose|beam- ing ray is|shed on ev'- ry|clime; It|shines by night, it|
w: Though he was but a|plough- man lad, And|wore the hod- den|grey, Auld|Sco- tia''s sweet- est|
"F" A d"D7" d3/2 e/ |"G7" d B"Dm7" B"D7" A |"G7" G3 G |"Dm7" f3/2 e/"G7" d/c/d/e/ |"C" c3 d | %10
w: shines by day and|ne'er grows dim wi'|time. It|rose up- on the banks o'|Ayr, It|
w: bards were bred, A-|neath a roof o'|strae. Tae|sweep the strings o' Sco- tia's|lyre, It|
"D7" d d e3/2"G#7" e/ |"G7" d3 G |"C" G3/2 A/"C7" B/c/d/e/ |"F" f3 A |"C" G c"G7" d3/2 c/ | %15
w: shone on Doon's clear|stream, Twa|hun- dred years are gane and|mair, Yet|bright- er grows its|
w: needs nae class- ic|lore; It's|mith- er wit an' nat- ive|fire, That|warms the bos- um's|
"C" c3 G |"C" E3/2 D/ C E | G3/2 A/ G c |"F" A c"C" G c |"D7""G7" d3 G |"C" e3/2 d/"C7" c G | %21
w: beam. Let|kings and court- iers|rise and fa',- This|world has mon- y|turns, But|bright- ly beams a-|
w: core. *||||||
"F" A c"Dm7" f3/2 A/ |"C" G c"G7" B d |"C" c4 :| %24
w: bune them a', The|star o' Rab- bie|Burns.|
w: |||

